icon/fa/qrcode.svg

<svg xmlns="http://www.w3.org/2000/svg" viewBox="0 0 448 512"><!--! Font Awesome Free 6.1.2 by @fontawesome - https://fontawesome.com License - https://fontawesome.com/license/free (Icons: CC BY 4.0, Fonts: SIL OFL 1.1, Code: MIT License) Copyright 2022 Fonticons, Inc.--><path d="M144 32c26.5 0 48 21.49 48 48v96c0 26.5-21.5 48-48 48H48c-26.51 0-48-21.5-48-48V80c0-26.51 21.49-48 48-48h96zm-16 64H64v64h64V96zm16 192c26.5 0 48 21.5 48 48v96c0 26.5-21.5 48-48 48H48c-26.51 0-48-21.5-48-48v-96c0-26.5 21.49-48 48-48h96zm-16 64H64v64h64v-64zM256 80c0-26.51 21.5-48 48-48h96c26.5 0 48 21.49 48 48v96c0 26.5-21.5 48-48 48h-96c-26.5 0-48-21.5-48-48V80zm64 80h64V96h-64v64zm32 288h32v32h-32v-32zm96 32h-32v-32h32v32zm-32-192h32v128h-96v-32h-32v96h-64V288h96v32h64v-32z"/></svg>

<svg xmlns="http://www.w3.org/2000/svg" viewBox="0 0 448 512" height="1em" width="1em">
<!--! Font Awesome Free 6.1.2 by @fontawesome - https://fontawesome.com License - https://fontawesome.com/license/free (Icons: CC BY 4.0, Fonts: SIL OFL 1.1, Code: MIT License) Copyright 2022 Fonticons, Inc.-->
  <path d="M144 32C170.5 32 192 53.49 192 80V176C192 202.5 170.5 224 144 224H48C21.49 224 0 202.5 0 176V80C0 53.49 21.49 32 48 32H144zM128 96H64V160H128V96zM144 288C170.5 288 192 309.5 192 336V432C192 458.5 170.5 480 144 480H48C21.49 480 0 458.5 0 432V336C0 309.5 21.49 288 48 288H144zM128 352H64V416H128V352zM256 80C256 53.49 277.5 32 304 32H400C426.5 32 448 53.49 448 80V176C448 202.5 426.5 224 400 224H304C277.5 224 256 202.5 256 176V80zM320 160H384V96H320V160zM352 448H384V480H352V448zM448 480H416V448H448V480zM416 288H448V416H352V384H320V480H256V288H352V320H416V288z"/>
</svg>
